X:48
T:Picknickery on (C.). JGi.048
M:C
L:1/8
Q:1/4=140
S:Joshua Gibbons MS,1823,Tealby,Lincs.
R:reel
O:Tealby,Lincolnshire
Z:VMP/R.Greig, 2009
K:C
c2GE|c2GE|.c.e.d.c (cB)(AG)|.A.c.B.A (AG)(FE)|F2G2c4:|
|:e2(ed) eeec|eege cccc|d2dB dddB|GAGF EDC2|
(eg).g.g .g.g.g.g|gc’ba agf2|ffaf gedc|cagf (ed)c2|
c2(GE)c2(GE)|cedc (cB)(AG)|AcBA (AG)(FE)|F2G2c4||

